modules/hawcons-filled/icons/icon-49-soccer-shoe.svg

<?xml version="1.0" encoding="UTF-8" standalone="no"?>
<svg width="32px" height="32px" viewBox="0 0 32 32" version="1.1" xmlns="http://www.w3.org/2000/svg" xmlns:xlink="http://www.w3.org/1999/xlink" xmlns:sketch="http://www.bohemiancoding.com/sketch/ns">
    <!-- Generator: Sketch 3.0.3 (7891) - http://www.bohemiancoding.com/sketch -->
    <title>icon 49 soccer shoe</title>
    <desc>Created with Sketch.</desc>
    <defs></defs>
    <g id="Page-1-Copy" stroke="none" stroke-width="1" fill="none" fill-rule="evenodd" sketch:type="MSPage">
        <g id="icon-49-soccer-shoe" sketch:type="MSArtboardGroup" fill="#929292">
            <path d="M14.0736778,13.5301119 C13.9463245,13.6205345 13.8206687,13.7123155 13.6966604,13.8046572 L13.6966604,13.8046572 L14.7318689,15.3958378 L13.893652,15.9411746 L12.9004905,14.4146232 C12.759157,14.5244874 12.6200677,14.6326057 12.4831348,14.7375719 L13.4318697,16.195837 L12.5936527,16.7411739 L11.6736554,15.3270802 L11.6736554,15.3270802 C11.5220912,15.4288833 11.3732771,15.5223259 11.227069,15.6051021 L11.227069,15.6051021 L12.1318695,16.9958372 L11.2936525,17.5411741 L10.2753895,15.9760399 C10.1825324,15.9917642 10.0907515,16 10,16 C9.63279588,16 9.299485,16 8.99999996,16 L8.99999997,16 L8.99999997,16.5 C8.99999997,16.6793064 9.05066488,16.9832958 9.19721357,17.2763932 C9.42781891,17.7376039 9.82141311,18 10.5,18 L16,18 C16.6339131,18 17.0840689,18.3001039 17.3222136,18.7763932 C17.4139984,18.9599629 17.4632459,19.1384755 17.4853099,19.2955033 C19.4474609,18.9715203 22,19.0357616 22,19.0357616 L29.002008,19.0357616 C28.9675813,17.6236226 28.8529697,15.7196956 28.5130662,14.2485189 L28.3535534,14.3535534 C28.2621153,14.4449915 28.0953168,14.5946824 27.8566971,14.7830664 C27.4652865,15.0920748 27.0095302,15.4000182 26.4928215,15.6870786 C25.0164813,16.5072676 23.3411912,17 21.5,17 C18.5988227,17 16.7076826,15.423826 15.6609076,13.4431216 C15.6180747,13.3620732 15.5357425,13.1379479 15.3867505,12.7105661 L15.3867505,12.7105661 C15.2249137,12.7953723 15.0655981,12.8855703 14.908725,12.9799029 L15.9127608,14.523169 L15.0745439,15.0685058 L14.0736779,13.530112 Z M7.99999997,15.9999999 C7.33626648,15.9999999 7.00544417,16 7.00544417,16 C5.34558319,16 4,17.3496704 4,19.0092545 C4,19.3512565 4.04329104,19.6832105 4.12467602,20 L4.12467602,20 L5.32092285,20 L13,20 C14.1380134,20 15.2705644,19.7546134 16.4998856,19.4924614 C16.4982233,19.4354439 16.4782574,19.3245489 16.4277864,19.2236068 C16.353431,19.0748961 16.2410868,19 16,19 L10.5,19 C9.42858686,19 8.69718105,18.5123961 8.30278638,17.7236068 C8.07433507,17.2667042 7.99999997,16.8206936 7.99999997,16.5 L7.99999997,15.9999999 L7.99999997,15.9999999 Z M4.53409186,21 C5.22683549,22.1953879 6.52319744,23 8.00281647,23 L10,23 L10,23 L10,24 L11,24 L11,23 L13,23 L13,24 L14,24 L14,23 L16,23 L16,24 L17,24 L17,23 L19,23 L19,24 L20,24 L20,23 L22,23 L22,24 L23,24 L23,23 L25,23 L25,24 L26,24 L26,23 L26.9964051,23 C28.10296,23 29.0104668,22.0998238 29.0049515,21.007983 C29.0049515,21.007983 29.0168276,20.6178647 29.0150953,20 L22,20 C22,20 19,20 17.3032466,20.3435373 C15.8041557,20.6470543 14.4093234,21 13,21 L5.32092285,21 L4.53409186,21 L4.53409186,21 Z M16.3046573,12.3055738 C16.8426857,12.1148283 17.4069893,12 18,12 C19.5,12 19,13.9714355 22,13.9714355 C25,13.9714355 24.7208252,12 27,12 C27.5343897,12 27.9284078,12.495209 28.2185013,13.2534073 L27.7226499,13.5839749 C27.5816347,13.7112585 27.4437457,13.8350051 27.2370529,13.9981836 C26.886276,14.2751127 26.4748448,14.5531068 26.0071785,14.8129214 C24.6710187,15.5552324 23.1588088,16 21.5,16 C19.0407895,16 17.4366881,14.663059 16.5450337,12.9758732 C16.5360792,12.9589295 16.4320738,12.6714365 16.3046573,12.3055738 L16.3046573,12.3055738 Z" id="Rectangle-242" sketch:type="MSShapeGroup"></path>
        </g>
    </g>
</svg>

<svg width="32" height="32" viewBox="0 0 32 32" xmlns="http://www.w3.org/2000/svg"><path d="M14.074 13.53c-.128.09-.253.182-.377.275l1.035 1.59-.838.546-.994-1.526c-.14.11-.28.218-.417.323l.949 1.458-.838.545-.92-1.414c-.152.102-.3.195-.447.278l.905 1.39-.838.546-1.019-1.565A1.648 1.648 0 0 1 10 16H9v.5c0 .18.05.483.197.776.23.462.624.724 1.303.724H16c.634 0 1.084.3 1.322.776.092.184.141.362.163.52 1.962-.324 4.515-.26 4.515-.26h7.002c-.034-1.412-.149-3.316-.489-4.787l-.16.105a6.03 6.03 0 0 1-.496.43c-.392.308-.847.616-1.364.903A10.189 10.189 0 0 1 21.5 17c-2.901 0-4.792-1.576-5.84-3.557-.042-.08-.124-.305-.273-.732a9.349 9.349 0 0 0-.478.269l1.004 1.543-.838.546-1.001-1.539zM8 16h-.995A3.009 3.009 0 0 0 4 19.01c0 .341.043.673.125.99H13c1.138 0 2.27-.245 3.5-.508a.713.713 0 0 0-.072-.268C16.353 19.074 16.24 19 16 19h-5.5c-1.071 0-1.803-.488-2.197-1.276A2.803 2.803 0 0 1 8 16.5V16zm-3.466 5c.693 1.195 1.99 2 3.469 2H10v1h1v-1h2v1h1v-1h2v1h1v-1h2v1h1v-1h2v1h1v-1h2v1h1v-1h.996c1.107 0 2.014-.9 2.009-1.992 0 0 .012-.39.01-1.008H22s-3 0-4.697.344C15.804 20.647 14.41 21 13 21H4.534zm11.77-8.694A5.046 5.046 0 0 1 18 12c1.5 0 1 1.971 4 1.971S24.72 12 27 12c.534 0 .928.495 1.219 1.253l-.496.331a8.805 8.805 0 0 1-1.716 1.229A9.198 9.198 0 0 1 21.5 16c-2.46 0-4.063-1.337-4.955-3.024a22.89 22.89 0 0 1-.24-.67z" fill="#929292" fill-rule="evenodd"/></svg>
